assets/icons/mic-24.svg

<svg width="24" height="24" viewBox="0 0 24 24" fill="none" xmlns="http://www.w3.org/2000/svg">
<path fill-rule="evenodd" clip-rule="evenodd" d="M12 1C9.30099 1 7.42857 3.20555 7.42857 5.55556V12.4444C7.42857 14.7944 9.30099 17 12 17C14.699 17 16.5714 14.7944 16.5714 12.4444V5.55556C16.5714 3.20555 14.699 1 12 1ZM6.28571 11.5C6.28571 10.9477 5.77404 10.5 5.14286 10.5C4.51167 10.5 4 10.9477 4 11.5V13C4 16.5265 6.98024 19.4439 10.8571 19.9291V21H6.28571C5.65453 21 5.14286 21.4477 5.14286 22C5.14286 22.5523 5.65453 23 6.28571 23H17.7143C18.3455 23 18.8571 22.5523 18.8571 22C18.8571 21.4477 18.3455 21 17.7143 21H13.1429V19.9291C17.0198 19.4439 20 16.5265 20 13V11.5C20 10.9477 19.4883 10.5 18.8571 10.5C18.226 10.5 17.7143 10.9477 17.7143 11.5V13C17.7143 15.7614 15.1559 18 12 18C8.84409 18 6.28571 15.7614 6.28571 13V11.5ZM12 3C10.9119 3 9.71429 3.9782 9.71429 5.55556V5.88889V6.88889V8V9V10.1111V12.1111V12.4444C9.71429 14.0218 10.9119 15 12 15C13.0881 15 14.2857 14.0218 14.2857 12.4444V5.55556C14.2857 3.9782 13.0881 3 12 3Z" fill="#F2F2F2"/>
</svg>

<svg xmlns="http://www.w3.org/2000/svg" width="24" height="24" viewBox="0 0 24 24"><path fill-rule="evenodd" d="M12 1C9.301 1 7.429 3.206 7.429 5.556v6.888C7.429 14.794 9.3 17 12 17s4.571-2.206 4.571-4.556V5.556C16.571 3.206 14.7 1 12 1zM6.286 11.5c0-.552-.512-1-1.143-1S4 10.948 4 11.5V13c0 3.526 2.98 6.444 6.857 6.93V21H6.286c-.631 0-1.143.448-1.143 1s.512 1 1.143 1h11.428c.632 0 1.143-.448 1.143-1s-.511-1-1.143-1h-4.571v-1.07C17.02 19.443 20 16.525 20 13v-1.5c0-.552-.512-1-1.143-1s-1.143.448-1.143 1V13c0 2.761-2.558 5-5.714 5-3.156 0-5.714-2.239-5.714-5v-1.5zM12 3c-1.088 0-2.286.978-2.286 2.556v6.888C9.714 14.022 10.912 15 12 15s2.286-.978 2.286-2.556V5.556C14.286 3.978 13.088 3 12 3z"/></svg>
